X: 466
T: Bûse Fikriyle Hulûs
C: Ahmet Avni Konuk
O: Turkey
F: http://compmusic.upf.edu/node/140
N: arazbarbuselik--kupe--agiraksak--buse--ahmet_avni_konuk
N: makam= arazbarbuselik
N: form= kupe
N: usul= agiraksak = 9/4
M: 9/4
L: 1/16
K: C _1/4B _1/4e  
Q: 1/4=60
%%MIDI tuningsystem comma53
g8 z2f2 _2/4e2f2 g8 g8 a4  | a2g4_2/4e2 f2g2 f2e2 z2a_b a2g2 f4 g4 f2a2  | 
w:  Ah  bû *  se  fik riy  |  le  *  *  *  *  hu *  lûs  *  *  *  arz   | 
g8 z2d4_2/4e2 f4 e2g2 g3^3/4f e2d2 c4  | \
w:  *  et mek_ i *  *  çin   | 
d2_3/4e2 d2c2 d2f2 =e2d2 d2c2 c2_2/4B2 c4 z4 _2/4e2f2  | 
w:  mut *  *  *  *  *  *  rı bân   *  *  *  *  Ah   | 
g8 z2f2 _2/4e2f2 g4 g2a2 a2g2 f2e2 d4  | \
w:  *  bir  *  u sul  *  *  i  | 
d4 d2a2 g4 f2_2/4e2 e2d2 d2e2 g3^3/4f _3/4e2d2 c2=B2  | 
w:  le  *  *  *  A *  raz *  *  *  bar   | 
c8 z2c2 =B2c2 d4 =e4 e2f2 e2d2 c3B  | \
w:  *  Bû *  se lik  *  ey  | 
A4 A2=B2 c2d2 c2B2 B2A2 A2^G2 A8 z4  | 
w:  ler  *  *  *  *  he *  mân    | 
|


